assets/images/wbcon_logo.svg

<svg fill="none" height="137" viewBox="0 0 371 137" width="371" xmlns="http://www.w3.org/2000/svg"><ellipse cx="253.5" cy="63" fill="#91ceeb" rx="35" ry="33"/><g fill="#000"><path clip-rule="evenodd" d="m108.528 42c0 19.33-15.2285 35-34.0139 35-18.7855 0-34.0141-15.67-34.0141-35s15.2286-35 34.0141-35c18.7854 0 34.0139 15.67 34.0139 35zm-36.4787 28.493c16.9886 0 30.7607-13.3747 30.7607-29.8733 0-16.4985-13.7721-29.8732-30.7607-29.8732s-30.7606 13.3747-30.7606 29.8732c0 16.4986 13.772 29.8733 30.7606 29.8733z" fill-rule="evenodd"/><path d="m59.7554 55.9014c-.43 0-.8119-.2749-.9484-.6827l-7.9082-23.6338c-.2167-.6477.2653-1.3173.9483-1.3173h8.2299c.4364 0 .8224.283.9536.6992l2.9122 9.2338c.2898.9188 1.5836.9368 1.8987.0263l3.2146-9.2864c.1394-.4028.5188-.6729.945-.6729h6.7589c.4262 0 .8056.2701.945.6729l3.2372 9.3518c.3128.9038 1.5941.8949 1.8944-.013l3.0846-9.3258c.1355-.4094.5182-.6859.9495-.6859h7.9548c.6801 0 1.1618.6643.9505 1.3107l-7.7265 23.6338c-.1344.4112-.5179.6893-.9505.6893h-9.9219c-.4158 0-.7882-.2574-.9353-.6463l-4.1262-10.9114c-.0397-.1051-.1404-.1747-.2528-.1747-.1928 0-.3236.1959-.2498.3739l1.373 3.3113c.0953.2297.1015.4868.0175.7209l-2.3923 6.6641c-.1426.3972-.5192.6622-.9412.6622z"/><path d="m123.272 55.7042c-.43 0-.812-.275-.948-.6829l-7.835-23.4367c-.216-.6477.266-1.317.949-1.317h8.14c.437 0 .823.2831.954.6995l2.877 9.132c.29.9191 1.584.9371 1.899.0263l3.177-9.1847c.139-.4029.518-.6731.945-.6731h6.688c.426 0 .805.2702.945.6731l3.199 9.2501c.312.9042 1.594.8953 1.894-.013l3.049-9.224c.135-.4096.518-.6862.949-.6862h7.868c.68 0 1.162.664.951 1.3105l-7.655 23.4366c-.134.4113-.518.6895-.95.6895h-9.824c-.416 0-.789-.2575-.936-.6466l-4.088-10.8222c-.04-.1043-.14-.1733-.251-.1733-.191 0-.321.1941-.248.3706l1.361 3.2837c.095.2296.101.4864.017.7203l-2.369 6.6051c-.142.3973-.519.6624-.941.6624z"/><path clip-rule="evenodd" d="m172.12 30.2678c9.465 0 10.155 6.0139 10.155 7.7887 0 1.4701-.544 2.442-1.14 3.2227-.4.5253-.24 1.3049.266 1.7302 1.114.9369 2.353 2.6105 2.353 4.7089 0 2.4667-.592 7.9862-11.437 7.9862-4.617 0-8.283-.0776-11.093-.0263-.566.0103-1.034-.4425-1.034-1.008v-23.4024c0-.5523.448-1 1-1zm-1.465 18.4364c-.552 0-1-.4477-1-1v-11.0282h2.761c.887 0 1.577.5916 1.577 1.3805s-.69 1.2815-1.479 1.2815h-1.267c-.553 0-1 .4477-1 1v4.6056c0 .5523.447 1 1 1h1.366c.887 0 1.676.6113 1.676 1.4789 0 .8021-.618 1.1604-.997 1.2619-.058.0155-.118.0198-.178.0198z" fill-rule="evenodd"/><path d="m197.556 56.2958c-7.351 0-13.31-6.0032-13.31-13.4085 0-7.4052 5.959-13.4084 13.31-13.4084 6.857 0 12.503 5.2236 13.231 11.9363.066.6137-.481 1.0962-1.093 1.0193-3.173-.3981-5.016-.3962-8.17-.843-.355-.0504-.646-.2968-.826-.6079-.634-1.103-1.804-1.8427-3.142-1.8427-2.015 0-3.648 1.6773-3.648 3.7464 0 2.0692 1.633 3.7465 3.648 3.7465 1.543 0 2.862-.984 3.395-2.3744.212-.553.748-.9848 1.333-.8918 2.897.4607 4.927.5565 7.567 1.0237.515.0912.866.5754.766 1.0892-1.199 6.1643-6.591 10.8153-13.061 10.8153z"/><path clip-rule="evenodd" d="m239.261 42.8873c0 7.4053-6.18 13.4085-13.803 13.4085s-13.803-6.0032-13.803-13.4085c0-7.4052 6.18-13.4084 13.803-13.4084s13.803 6.0032 13.803 13.4084zm-13.803 3.5493c2.069 0 3.747-1.589 3.747-3.5493 0-1.9602-1.678-3.5493-3.747-3.5493s-3.746 1.5891-3.746 3.5493c0 1.9603 1.677 3.5493 3.746 3.5493z" fill-rule="evenodd"/><path d="m241.147 55.7042c-.552 0-1-.4477-1-1v-23.4366c0-.5523.448-1 1-1h7.426c.34 0 .658.1732.841.4596l6.522 10.1546c.053.0824.144.1323.242.1323.229 0 .366-.2543.24-.4456l-1.614-2.4595c-.107-.163-.164-.3537-.164-.5487v-6.2927c0-.5523.448-1 1-1h7.465c.552 0 1 .4477 1 1v23.4366c0 .5523-.448 1-1 1h-7.915c-.342 0-.661-.1749-.844-.4636l-6.349-9.9893c-.038-.06-.104-.0964-.175-.0964-.164 0-.264.1811-.175.3195l1.71 2.6883c.102.1605.157.3467.157.5369v6.0046c0 .5523-.448 1-1 1z"/></g></svg>

<svg width="371" height="137" viewBox="0 0 371 137" fill="none" xmlns="http://www.w3.org/2000/svg">
<ellipse cx="253.5" cy="63" rx="35" ry="33" fill="#91CEEB"/>
<path fill-rule="evenodd" clip-rule="evenodd" d="M108.528 42C108.528 61.33 93.2995 77 74.5141 77C55.7286 77 40.5 61.33 40.5 42C40.5 22.67 55.7286 7 74.5141 7C93.2995 7 108.528 22.67 108.528 42ZM72.0493 70.493C89.0379 70.493 102.81 57.1183 102.81 40.6197C102.81 24.1212 89.0379 10.7465 72.0493 10.7465C55.0607 10.7465 41.2887 24.1212 41.2887 40.6197C41.2887 57.1183 55.0607 70.493 72.0493 70.493Z" fill="black"/>
<path d="M59.7554 55.9014C59.3254 55.9014 58.9435 55.6265 58.807 55.2187L50.8988 31.5849C50.6821 30.9372 51.1641 30.2676 51.8471 30.2676H60.077C60.5134 30.2676 60.8994 30.5506 61.0306 30.9668L63.9428 40.2006C64.2326 41.1194 65.5264 41.1374 65.8415 40.2269L69.0561 30.9405C69.1955 30.5377 69.5749 30.2676 70.0011 30.2676H76.76C77.1862 30.2676 77.5656 30.5377 77.705 30.9405L80.9422 40.2923C81.255 41.1961 82.5363 41.1872 82.8366 40.2793L85.9212 30.9535C86.0567 30.5441 86.4394 30.2676 86.8707 30.2676H94.8255C95.5056 30.2676 95.9873 30.9319 95.776 31.5783L88.0495 55.2121C87.9151 55.6233 87.5316 55.9014 87.099 55.9014H77.1771C76.7613 55.9014 76.3889 55.644 76.2418 55.2551L72.1156 44.3437C72.0759 44.2386 71.9752 44.169 71.8628 44.169C71.67 44.169 71.5392 44.3649 71.613 44.5429L72.986 47.8542C73.0813 48.0839 73.0875 48.341 73.0035 48.5751L70.6112 55.2392C70.4686 55.6364 70.092 55.9014 69.67 55.9014H59.7554Z" fill="black"/>
<path d="M123.272 55.7042C122.842 55.7042 122.46 55.4292 122.324 55.0213L114.489 31.5846C114.273 30.9369 114.755 30.2676 115.438 30.2676H123.578C124.015 30.2676 124.401 30.5507 124.532 30.9671L127.409 40.0991C127.699 41.0182 128.993 41.0362 129.308 40.1254L132.485 30.9407C132.624 30.5378 133.003 30.2676 133.43 30.2676H140.118C140.544 30.2676 140.923 30.5378 141.063 30.9407L144.262 40.1908C144.574 41.095 145.856 41.0861 146.156 40.1778L149.205 30.9538C149.34 30.5442 149.723 30.2676 150.154 30.2676H158.022C158.702 30.2676 159.184 30.9316 158.973 31.5781L151.318 55.0147C151.184 55.426 150.8 55.7042 150.368 55.7042H140.544C140.128 55.7042 139.755 55.4467 139.608 55.0576L135.52 44.2354C135.48 44.1311 135.38 44.0621 135.269 44.0621C135.078 44.0621 134.948 44.2562 135.021 44.4327L136.382 47.7164C136.477 47.946 136.483 48.2028 136.399 48.4367L134.03 55.0418C133.888 55.4391 133.511 55.7042 133.089 55.7042H123.272Z" fill="black"/>
<path fill-rule="evenodd" clip-rule="evenodd" d="M172.12 30.2678C181.585 30.2678 182.275 36.2817 182.275 38.0565C182.275 39.5266 181.731 40.4985 181.135 41.2792C180.735 41.8045 180.895 42.5841 181.401 43.0094C182.515 43.9463 183.754 45.6199 183.754 47.7183C183.754 50.185 183.162 55.7045 172.317 55.7045C167.7 55.7045 164.034 55.6269 161.224 55.6782C160.658 55.6885 160.19 55.2357 160.19 54.6702V31.2678C160.19 30.7155 160.638 30.2678 161.19 30.2678H172.12ZM170.655 48.7042C170.103 48.7042 169.655 48.2565 169.655 47.7042V36.676H172.416C173.303 36.676 173.993 37.2676 173.993 38.0565C173.993 38.8454 173.303 39.338 172.514 39.338H171.247C170.694 39.338 170.247 39.7857 170.247 40.338V44.9436C170.247 45.4959 170.694 45.9436 171.247 45.9436H172.613C173.5 45.9436 174.289 46.5549 174.289 47.4225C174.289 48.2246 173.671 48.5829 173.292 48.6844C173.234 48.6999 173.174 48.7042 173.114 48.7042H170.655Z" fill="black"/>
<path d="M197.556 56.2958C190.205 56.2958 184.246 50.2926 184.246 42.8873C184.246 35.4821 190.205 29.4789 197.556 29.4789C204.413 29.4789 210.059 34.7025 210.787 41.4152C210.853 42.0289 210.306 42.5114 209.694 42.4345C206.521 42.0364 204.678 42.0383 201.524 41.5915C201.169 41.5411 200.878 41.2947 200.698 40.9836C200.064 39.8806 198.894 39.1409 197.556 39.1409C195.541 39.1409 193.908 40.8182 193.908 42.8873C193.908 44.9565 195.541 46.6338 197.556 46.6338C199.099 46.6338 200.418 45.6498 200.951 44.2594C201.163 43.7064 201.699 43.2746 202.284 43.3676C205.181 43.8283 207.211 43.9241 209.851 44.3913C210.366 44.4825 210.717 44.9667 210.617 45.4805C209.418 51.6448 204.026 56.2958 197.556 56.2958Z" fill="black"/>
<path fill-rule="evenodd" clip-rule="evenodd" d="M239.261 42.8873C239.261 50.2926 233.081 56.2958 225.458 56.2958C217.835 56.2958 211.655 50.2926 211.655 42.8873C211.655 35.4821 217.835 29.4789 225.458 29.4789C233.081 29.4789 239.261 35.4821 239.261 42.8873ZM225.458 46.4366C227.527 46.4366 229.205 44.8476 229.205 42.8873C229.205 40.9271 227.527 39.338 225.458 39.338C223.389 39.338 221.712 40.9271 221.712 42.8873C221.712 44.8476 223.389 46.4366 225.458 46.4366Z" fill="black"/>
<path d="M241.147 55.7042C240.595 55.7042 240.147 55.2565 240.147 54.7042V31.2676C240.147 30.7153 240.595 30.2676 241.147 30.2676H248.573C248.913 30.2676 249.231 30.4408 249.414 30.7272L255.936 40.8818C255.989 40.9642 256.08 41.0141 256.178 41.0141C256.407 41.0141 256.544 40.7598 256.418 40.5685L254.804 38.109C254.697 37.946 254.64 37.7553 254.64 37.5603V31.2676C254.64 30.7153 255.088 30.2676 255.64 30.2676H263.105C263.657 30.2676 264.105 30.7153 264.105 31.2676V54.7042C264.105 55.2565 263.657 55.7042 263.105 55.7042H255.19C254.848 55.7042 254.529 55.5293 254.346 55.2406L247.997 45.2513C247.959 45.1913 247.893 45.1549 247.822 45.1549C247.658 45.1549 247.558 45.336 247.647 45.4744L249.357 48.1627C249.459 48.3232 249.514 48.5094 249.514 48.6996V54.7042C249.514 55.2565 249.066 55.7042 248.514 55.7042H241.147Z" fill="black"/>
</svg>
